!!!OTL: 333. Der Burgunder.
!!!ODT: 1745 (Mel.)
!!!ARE: Europa, Mitteleuropa, Deutschland
!!!SCT: B0333
!!!TXL: @@DE
!!!YEM: Copyright 1995, estate of Helmut Schaffrath.
**kern	**text
*ICvox	*
*Ivox	*
*clefG2	*
*M2/4	*
*k[f#c#]	*
*D:	*
{16f#L	Bur-
16gJ	.
=1	=1
8a	-gun-
8d	-der
8d	her!
8d	Bur-
=2	=2
8dd	-gun-
8a	-der
8a}	her!
{8a	Bur-
=3	=3
8ff#	-gun-
16eeL	-der
16ddJ	.
8cc#	iſt
8dd	mein
=4	=4
16eeL	Le-
16cc#J	.
8a	-ben!
8r}	.
{16f#L	Der
16gJ	.
=5	=5
8a	kann
8d	mir,
8d	wenn
8d	das
=6	=6
8dd	Her-
8a	-ʒe
8a}	ſchwer,
{8a	Glück,
=7	=7
8ff#	Kraft
16eeL	und
16ddJ	.
8cc#	Stärkung
8dd	.
=8	=8
16eeL	ge-
16cc#J	.
8a	-ben.
8r}	.
{16aL	Und
16bJ	.
=9	=9
8cc#	wenn
8a	ich
8a	was
8a	ver-
=10	=10
8ee	-rich-
8a	-ten
8a}	ſoll,
{8a	ſo
=11	=11
8a	ſchenkt
8e	mir
8e	nur
16f#L	die
16gJ	.
=12	=12
8f#	Glä-
16eL	-ſer
16f#J	.
8d}	voll;
{8f#	drauf
=13	=13
8g	thu'
8f#	ich
8e	gleichſam
8d	.
=14	=14
4g#	Wun-
8a}	-der.
{8dd	Bur-
=15	=15
4dd	-gun-
8f#	-der!
8g	Bur-
=16	=16
4a	-gun-
8d}	-der!
==	==
!!!AGN: Trink - Lied
!!!GTL: Wein- und Trinklieder
!!!ONB: ESAC (Essen Associative Code) Database: BOEHME
!!!AMT: simple duple
!!!AIN: vox
!!!EED: Helmut Schaffrath
!!!EEV: 1.0
!!@@COMMENT:"Aus: "Sperontes ſingende Muſe". Leipʒig 1745. Daher Becker, "Lieder und Weiſen". 1853. 1. Abth. S. 61."
!!@@END:
!!!URL-scan: https://archive.org/details/BoehmeVtLieder1895/page/n279/mode/2up
!!!ENC: Anna Maria Matuszewska
!!!EEV: 2024/04/07
*-	*-
